X: 2132
T: Atlantic Wave, The
R: reel
M: 4/4
K: Gmajor
|:G2BG d2dB|cBcd efge|d2BG DGBG|(3FED AD BDAF|
G2BG d2dB|cBcd efge|dgfg ecAF|1 G2GF G2(3DEF:|2 G2GF G2 (3def||
|:g2fg ed^ce|dfab afdf|bagf gdBG|(3FED AD BDAF|
G2BG d2dB|cBcd efge|dgfg ecAF|1 GBAF G2 (3def:|2 GBAF G2z2||

